X:89
T:Morgan Rattler. JGi.089
O:Tealby,Lincolnshire
M:6/8
L:1/8
Q:3/8=120
S:Joshua Gibbons MS,1823,Tealby,Lincs.
R:Jig
Z:VMP/R.Greig, 2009
K:D
d|AGF EFG|FEFD2d|AGF EFG|B2A Bcd|
AGF EFG|FEF D2A|def edc|B2A Bcd:|
|:d2e fdB|c2d ecA|d2e fdB|g2e fga|
d2e fdB|c2d ecA|def ecA|B2A Bcd||
D2d dcd|E2e ede|D2d dcd|B2B Bcd|
D2d dcd|E2e efg|agf edc|B2B Bcd|]

